client/assets/images/customer-home/illustration--secondary-free-photo-library.svg

<svg width="200" height="115" viewBox="0 0 200 115" fill="none" xmlns="http://www.w3.org/2000/svg">
<g clip-path="url(#clip0_2_14367)">
<path d="M3.96094 2.5C3.96094 1.39543 4.85637 0.5 5.96094 0.5H197.092C198.197 0.5 199.092 1.39543 199.092 2.5V96.72C199.092 97.8246 198.197 98.72 197.092 98.72H5.96094C4.85637 98.72 3.96094 97.8246 3.96094 96.72V2.5Z" fill="white" stroke="#C3C4C7"/>
<path d="M188.444 35.974H153.876C151.943 35.974 150.376 37.541 150.376 39.474V74.042C150.376 75.975 151.943 77.542 153.876 77.542H188.444C190.377 77.542 191.944 75.975 191.944 74.042V39.474C191.944 37.541 190.377 35.974 188.444 35.974Z" fill="white" stroke="#DCDCDE"/>
<path d="M138.781 35.974H104.213C102.28 35.974 100.713 37.541 100.713 39.474V74.042C100.713 75.975 102.28 77.542 104.213 77.542H138.781C140.714 77.542 142.281 75.975 142.281 74.042V39.474C142.281 37.541 140.714 35.974 138.781 35.974Z" fill="white" stroke="#DCDCDE"/>
<mask id="mask0_2_14367" style="mask-type:luminance" maskUnits="userSpaceOnUse" x="149" y="85" width="44" height="14">
<path d="M150.376 85.636H191.944V97.94H150.376V85.636Z" fill="white" stroke="#DCDCDE"/>
</mask>
<g mask="url(#mask0_2_14367)">
<path d="M188.444 85.636H153.876C151.943 85.636 150.376 87.203 150.376 89.136V123.704C150.376 125.637 151.943 127.204 153.876 127.204H188.444C190.377 127.204 191.944 125.637 191.944 123.704V89.136C191.944 87.203 190.377 85.636 188.444 85.636Z" fill="white" stroke="#DCDCDE"/>
</g>
<mask id="mask1_2_14367" style="mask-type:luminance" maskUnits="userSpaceOnUse" x="100" y="85" width="43" height="14">
<path d="M100.713 85.636H142.281V97.94H100.713V85.636Z" fill="white" stroke="#DCDCDE"/>
</mask>
<g mask="url(#mask1_2_14367)">
<path d="M138.781 85.636H104.213C102.28 85.636 100.713 87.203 100.713 89.136V123.704C100.713 125.637 102.28 127.204 104.213 127.204H138.781C140.714 127.204 142.281 125.637 142.281 123.704V89.136C142.281 87.203 140.714 85.636 138.781 85.636Z" fill="white" stroke="#DCDCDE"/>
</g>
<path d="M53.21 8.86902H81.59V19.51H53.21V8.86902Z" fill="#DCDCDE"/>
<path d="M46.6162 0V28.379M4.61523 28.343H198.439" stroke="#C3C4C7"/>
<path d="M88.6841 8.86902H145.442V19.51H88.6841V8.86902ZM152.536 8.86902H176.649V19.51H152.536V8.86902Z" fill="#DCDCDE"/>
<mask id="mask2_2_14367" style="mask-type:luminance" maskUnits="userSpaceOnUse" x="13" y="9" width="10" height="10">
<path fillRule="evenodd" clipRule="evenodd" d="M22.4658 10.642V17.737C22.4658 18.39 21.9368 18.919 21.2838 18.919H14.1898C13.5368 18.919 13.0078 18.389 13.0078 17.737V10.642C13.0078 9.98902 13.5378 9.46002 14.1898 9.46002H21.2848C21.9378 9.46002 22.4658 9.98902 22.4658 10.642ZM21.2838 10.642H14.1898V14.414L15.4848 13.119L18.5768 16.211L19.1678 15.621C19.3475 15.4769 19.5739 15.4038 19.804 15.4156C20.034 15.4274 20.2518 15.5233 20.4158 15.685L21.2858 16.555L21.2838 10.642ZM19.2138 11.825C19.0949 11.821 18.9764 11.841 18.8653 11.8838C18.7543 11.9265 18.653 11.9912 18.5674 12.0739C18.4819 12.1566 18.4139 12.2557 18.3674 12.3652C18.321 12.4748 18.297 12.5925 18.297 12.7115C18.297 12.8305 18.321 12.9483 18.3674 13.0578C18.4139 13.1674 18.4819 13.2665 18.5674 13.3492C18.653 13.4319 18.7543 13.4965 18.8653 13.5393C18.9764 13.582 19.0949 13.602 19.2138 13.598C19.4491 13.598 19.6747 13.5046 19.841 13.3382C20.0074 13.1719 20.1008 12.9463 20.1008 12.711C20.1008 12.4758 20.0074 12.2502 19.841 12.0838C19.6747 11.9175 19.4491 11.825 19.2138 11.825Z" fill="white"/>
</mask>
<g mask="url(#mask2_2_14367)">
<path d="M10.6416 7.09503H24.8316V21.285H10.6416V7.09503Z" fill="#50575E"/>
</g>
<path fillRule="evenodd" clipRule="evenodd" d="M37.2468 12.86L33.6998 16.406L30.1528 12.858L30.7798 12.231L33.6998 15.151L36.6198 12.231" fill="#101517"/>
<mask id="mask3_2_14367" style="mask-type:luminance" maskUnits="userSpaceOnUse" x="30" y="12" width="8" height="5">
<path fillRule="evenodd" clipRule="evenodd" d="M37.2468 12.86L33.6998 16.406L30.1528 12.858L30.7798 12.231L33.6998 15.151L36.6198 12.231" fill="white"/>
</mask>
<g mask="url(#mask3_2_14367)">
<path d="M28.3789 8.86902H39.0209V19.51H28.3799L28.3789 8.86902Z" fill="#8C8F94"/>
</g>
<path fillRule="evenodd" clipRule="evenodd" d="M24.89 32.831L17 24.941L9.11 32.831H4C2.93913 32.831 1.92172 33.2524 1.17157 34.0026C0.421427 34.7527 0 35.7701 0 36.831L0 110.831C0 111.892 0.421427 112.909 1.17157 113.659C1.92172 114.41 2.93913 114.831 4 114.831H120C121.061 114.831 122.078 114.41 122.828 113.659C123.579 112.909 124 111.892 124 110.831V36.831C124 35.7701 123.579 34.7527 122.828 34.0026C122.078 33.2524 121.061 32.831 120 32.831H24.89Z" fill="white"/>
<mask id="mask4_2_14367" style="mask-type:luminance" maskUnits="userSpaceOnUse" x="0" y="24" width="124" height="91">
<path fillRule="evenodd" clipRule="evenodd" d="M24.89 32.831L17 24.941L9.11 32.831H4C2.93913 32.831 1.92172 33.2524 1.17157 34.0026C0.421427 34.7527 0 35.7701 0 36.831L0 110.831C0 111.892 0.421427 112.909 1.17157 113.659C1.92172 114.41 2.93913 114.831 4 114.831H120C121.061 114.831 122.078 114.41 122.828 113.659C123.579 112.909 124 111.892 124 110.831V36.831C124 35.7701 123.579 34.7527 122.828 34.0026C122.078 33.2524 121.061 32.831 120 32.831H24.89Z" fill="white"/>
</mask>
<g mask="url(#mask4_2_14367)">
<path d="M17 24.941L17.707 24.234L17 23.527L16.293 24.234L17 24.941ZM24.89 32.831L24.183 33.538L24.476 33.831H24.89V32.831ZM9.11 32.831V33.831H9.524L9.817 33.538L9.11 32.831ZM16.293 25.648L24.183 33.538L25.597 32.124L17.707 24.234L16.293 25.648ZM9.817 33.538L17.707 25.648L16.293 24.234L8.403 32.124L9.817 33.538ZM4 33.831H9.11V31.831H4V33.831ZM1 36.831C1 36.0353 1.31607 35.2723 1.87868 34.7097C2.44129 34.147 3.20435 33.831 4 33.831V31.831C2.67392 31.831 1.40215 32.3578 0.464466 33.2954C-0.473216 34.2331 -1 35.5049 -1 36.831H1ZM1 110.831V36.831H-1V110.831H1ZM4 113.831C3.20435 113.831 2.44129 113.515 1.87868 112.952C1.31607 112.39 1 111.627 1 110.831H-1C-1 112.157 -0.473216 113.429 0.464466 114.367C1.40215 115.304 2.67392 115.831 4 115.831V113.831ZM120 113.831H4V115.831H120V113.831ZM123 110.831C123 111.627 122.684 112.39 122.121 112.952C121.559 113.515 120.796 113.831 120 113.831V115.831C121.326 115.831 122.598 115.304 123.536 114.367C124.473 113.429 125 112.157 125 110.831H123ZM123 36.831V110.831H125V36.831H123ZM120 33.831C120.796 33.831 121.559 34.147 122.121 34.7097C122.684 35.2723 123 36.0353 123 36.831H125C125 35.5049 124.473 34.2331 123.536 33.2954C122.598 32.3578 121.326 31.831 120 31.831V33.831ZM24.89 33.831H120V31.831H24.89V33.831Z" fill="#C3C4C7"/>
</g>
<path d="M0 86.023H124.158V107.308H0V86.023Z" fill="#3858E9"/>
<path d="M35.4731 47.002H81.5901V54.097H35.4731V47.002ZM35.4731 68.287H109.968V75.381H35.4731V68.287Z" fill="#646970"/>
<path d="M35.4731 93.118H92.2311V100.213H35.4731V93.118Z" fill="white"/>
<path d="M21.284 68.969L18.624 66.513V71.015L19.511 71.834H21.284V68.969ZM21.489 75.381L23.945 72.721H19.442L18.624 73.607V75.381H21.489ZM15.076 75.585L17.736 78.041V73.54L16.85 72.721H15.076V75.585ZM14.871 69.173L12.416 71.833H16.918L17.737 70.947V69.173H14.871Z" fill="#50575E"/>
<mask id="mask5_2_14367" style="mask-type:luminance" maskUnits="userSpaceOnUse" x="13" y="45" width="10" height="10">
<path fillRule="evenodd" clipRule="evenodd" d="M22.4658 46.505V53.6C22.4658 54.253 21.9368 54.782 21.2838 54.782H14.1888C13.8754 54.782 13.5747 54.6575 13.353 54.4358C13.1314 54.2141 13.0068 53.9135 13.0068 53.6V46.505C13.0068 45.852 13.5368 45.323 14.1888 45.323H21.2838C21.9368 45.323 22.4658 45.853 22.4658 46.505ZM21.2838 46.505H14.1888V50.277L15.4838 48.982L18.5758 52.075L19.1668 51.483C19.3467 51.339 19.5731 51.2661 19.8032 51.2781C20.0333 51.2901 20.2509 51.3861 20.4148 51.548L21.2838 52.418V46.505ZM19.2138 47.688C19.0949 47.684 18.9764 47.704 18.8654 47.7467C18.7543 47.7895 18.653 47.8541 18.5675 47.9369C18.4819 48.0196 18.4139 48.1186 18.3675 48.2282C18.321 48.3377 18.2971 48.4555 18.2971 48.5745C18.2971 48.6935 18.321 48.8113 18.3675 48.9208C18.4139 49.0303 18.4819 49.1294 18.5675 49.2121C18.653 49.2949 18.7543 49.3595 18.8654 49.4023C18.9764 49.445 19.0949 49.465 19.2138 49.461C19.4438 49.4533 19.6618 49.3565 19.8217 49.1911C19.9816 49.0257 20.0711 48.8046 20.0711 48.5745C20.0711 48.3444 19.9816 48.1233 19.8217 47.9579C19.6618 47.7925 19.4438 47.6957 19.2138 47.688Z" fill="white"/>
</mask>
<g mask="url(#mask5_2_14367)">
<path d="M10.6416 42.958H24.8316V57.148H10.6416V42.958Z" fill="#50575E"/>
</g>
<path fillRule="evenodd" clipRule="evenodd" d="M19.5102 94.005C19.5102 93.7696 19.6037 93.5439 19.7702 93.3774C19.9366 93.211 20.1623 93.1175 20.3977 93.1175C20.6331 93.1175 20.8588 93.211 21.0253 93.3774C21.1917 93.5439 21.2852 93.7696 21.2852 94.005C21.2852 94.2404 21.1917 94.4661 21.0253 94.6326C20.8588 94.799 20.6331 94.8925 20.3977 94.8925C20.1623 94.8925 19.9366 94.799 19.7702 94.6326C19.6037 94.4661 19.5102 94.2404 19.5102 94.005ZM13.0072 101.395H21.2842C21.2842 102.048 20.7542 102.578 20.1022 102.578H13.0072C12.3572 102.578 11.8242 102.046 11.8242 101.395V94.3C11.8242 93.647 12.3542 93.118 13.0072 93.118V101.395ZM23.6492 91.935V99.03C23.6492 99.684 23.1192 100.213 22.4662 100.213H15.3722C14.7182 100.213 14.1892 99.683 14.1892 99.03V91.936C14.1892 91.282 14.7192 90.753 15.3722 90.753H22.4662C23.1202 90.753 23.6492 91.282 23.6492 91.935ZM15.3722 91.935V95.504L17.1452 93.626L20.0152 96.666L20.4032 96.254C20.8732 95.754 21.6932 95.754 22.1632 96.254L22.4662 96.575V91.935H15.3722Z" fill="#101517"/>
<mask id="mask6_2_14367" style="mask-type:luminance" maskUnits="userSpaceOnUse" x="11" y="90" width="13" height="13">
<path fillRule="evenodd" clipRule="evenodd" d="M19.5102 94.005C19.5102 93.7696 19.6037 93.5439 19.7702 93.3774C19.9366 93.211 20.1623 93.1175 20.3977 93.1175C20.6331 93.1175 20.8588 93.211 21.0253 93.3774C21.1917 93.5439 21.2852 93.7696 21.2852 94.005C21.2852 94.2404 21.1917 94.4661 21.0253 94.6326C20.8588 94.799 20.6331 94.8925 20.3977 94.8925C20.1623 94.8925 19.9366 94.799 19.7702 94.6326C19.6037 94.4661 19.5102 94.2404 19.5102 94.005ZM13.0072 101.395H21.2842C21.2842 102.048 20.7542 102.578 20.1022 102.578H13.0072C12.3572 102.578 11.8242 102.046 11.8242 101.395V94.3C11.8242 93.647 12.3542 93.118 13.0072 93.118V101.395ZM23.6492 91.935V99.03C23.6492 99.684 23.1192 100.213 22.4662 100.213H15.3722C14.7182 100.213 14.1892 99.683 14.1892 99.03V91.936C14.1892 91.282 14.7192 90.753 15.3722 90.753H22.4662C23.1202 90.753 23.6492 91.282 23.6492 91.935ZM15.3722 91.935V95.504L17.1452 93.626L20.0152 96.666L20.4032 96.254C20.8732 95.754 21.6932 95.754 22.1632 96.254L22.4662 96.575V91.935H15.3722Z" fill="white"/>
</mask>
<g mask="url(#mask6_2_14367)">
<path d="M10.6421 89.57H24.8321V103.76H10.6421V89.57Z" fill="white"/>
</g>
</g>
<defs>
<clipPath id="clip0_2_14367">
<rect width="200" height="115" fill="white"/>
</clipPath>
</defs>
</svg>

<svg fill="none" height="115" width="200" xmlns="http://www.w3.org/2000/svg"><mask id="illo-secondary-free-photo-library-a" height="14" maskUnits="userSpaceOnUse" width="44" x="149" y="85"><path d="M150.376 85.636h41.568V97.94h-41.568z" fill="#fff" stroke="#dcdcde"/></mask><mask id="illo-secondary-free-photo-library-b" height="14" maskUnits="userSpaceOnUse" width="43" x="100" y="85"><path d="M100.713 85.636h41.568V97.94h-41.568z" fill="#fff" stroke="#dcdcde"/></mask><mask id="illo-secondary-free-photo-library-c" height="10" maskUnits="userSpaceOnUse" width="10" x="13" y="9"><path clip-rule="evenodd" d="M22.466 10.642v7.095c0 .653-.529 1.182-1.182 1.182H14.19c-.653 0-1.182-.53-1.182-1.182v-7.095c0-.653.53-1.182 1.182-1.182h7.095c.653 0 1.182.529 1.182 1.182zm-1.182 0H14.19v3.772l1.295-1.295 3.092 3.092.591-.59a.94.94 0 011.248.064l.87.87zm-2.07 1.183a.887.887 0 100 1.773.887.887 0 000-1.774z" fill="#fff" fill-rule="evenodd"/></mask><mask id="illo-secondary-free-photo-library-d" height="5" maskUnits="userSpaceOnUse" width="8" x="30" y="12"><path clip-rule="evenodd" d="M37.247 12.86L33.7 16.406l-3.547-3.548.627-.627 2.92 2.92 2.92-2.92" fill="#fff" fill-rule="evenodd"/></mask><mask id="illo-secondary-free-photo-library-e" fill="#fff"><path clip-rule="evenodd" d="M24.89 32.831L17 24.941l-7.89 7.89H4a4 4 0 00-4 4v74a4 4 0 004 4h116a4 4 0 004-4v-74a4 4 0 00-4-4z" fill-rule="evenodd"/></mask><mask id="illo-secondary-free-photo-library-f" height="10" maskUnits="userSpaceOnUse" width="10" x="13" y="45"><path clip-rule="evenodd" d="M22.466 46.505V53.6c0 .653-.529 1.182-1.182 1.182h-7.095a1.182 1.182 0 01-1.182-1.182v-7.095c0-.653.53-1.182 1.182-1.182h7.095c.653 0 1.183.53 1.183 1.182zm-1.182 0h-7.095v3.772l1.295-1.295 3.092 3.093.591-.592a.94.94 0 011.248.065l.869.87zm-2.07 1.183a.887.887 0 100 1.773.887.887 0 000-1.773z" fill="#fff" fill-rule="evenodd"/></mask><mask id="illo-secondary-free-photo-library-g" height="13" maskUnits="userSpaceOnUse" width="13" x="11" y="90"><path clip-rule="evenodd" d="M19.51 94.005a.887.887 0 111.775 0 .887.887 0 01-1.775 0zm-6.503 7.39h8.277c0 .653-.53 1.183-1.182 1.183h-7.095c-.65 0-1.183-.532-1.183-1.183V94.3c0-.653.53-1.182 1.183-1.182zm10.642-9.46v7.095c0 .654-.53 1.183-1.183 1.183h-7.094c-.654 0-1.183-.53-1.183-1.183v-7.094c0-.654.53-1.183 1.183-1.183h7.094c.654 0 1.183.53 1.183 1.183zm-8.277 0v3.569l1.773-1.878 2.87 3.04.388-.412c.47-.5 1.29-.5 1.76 0l.303.321v-4.64z" fill="#fff" fill-rule="evenodd"/></mask><path d="M3.961.5h195.131v98.22H3.961z" fill="#fff" stroke="#c3c4c7"/><rect fill="#fff" height="41.568" rx="3.5" stroke="#dcdcde" width="41.568" x="150.376" y="35.974"/><rect fill="#fff" height="41.568" rx="3.5" stroke="#dcdcde" width="41.568" x="100.713" y="35.974"/><g mask="url(#illo-secondary-free-photo-library-a)"><rect fill="#fff" height="41.568" rx="3.5" stroke="#dcdcde" width="41.568" x="150.376" y="85.636"/></g><g mask="url(#illo-secondary-free-photo-library-b)"><rect fill="#fff" height="41.568" rx="3.5" stroke="#dcdcde" width="41.568" x="100.713" y="85.636"/></g><path d="M53.21 8.869h28.38V19.51H53.21z" fill="#dcdcde"/><path d="M46.616 0v28.379m-42.001-.036h193.824" stroke="#c3c4c7"/><path d="M88.684 8.869h56.758V19.51H88.684zm63.852 0h24.113V19.51h-24.113z" fill="#dcdcde"/><g mask="url(#illo-secondary-free-photo-library-c)"><path d="M10.642 7.095h14.19v14.19h-14.19z" fill="#50575e"/></g><path clip-rule="evenodd" d="M37.247 12.86L33.7 16.406l-3.547-3.548.627-.627 2.92 2.92 2.92-2.92" fill="#101517" fill-rule="evenodd"/><g mask="url(#illo-secondary-free-photo-library-d)"><path d="M28.379 8.869h10.642V19.51H28.38z" fill="#8c8f94"/></g><path clip-rule="evenodd" d="M24.89 32.831L17 24.941l-7.89 7.89H4a4 4 0 00-4 4v74a4 4 0 004 4h116a4 4 0 004-4v-74a4 4 0 00-4-4z" fill="#fff" fill-rule="evenodd"/><path d="M17 24.941l.707-.707-.707-.707-.707.707zm7.89 7.89l-.707.707.293.293h.414zm-15.78 0v1h.414l.293-.293zm7.183-7.183l7.89 7.89 1.414-1.414-7.89-7.89zm-6.476 7.89l7.89-7.89-1.414-1.414-7.89 7.89zM4 33.831h5.11v-2H4zm-3 3a3 3 0 013-3v-2a5 5 0 00-5 5zm0 74v-74h-2v74zm3 3a3 3 0 01-3-3h-2a5 5 0 005 5zm116 0H4v2h116zm3-3a3 3 0 01-3 3v2a5 5 0 005-5zm0-74v74h2v-74zm-3-3a3 3 0 013 3h2a5 5 0 00-5-5zm-95.11 0H120v-2H24.89z" fill="#c3c4c7" mask="url(#illo-secondary-free-photo-library-e)"/><path d="M0 86.023h124.158v21.285H0z" fill="#1689db"/><path d="M35.473 47.002H81.59v7.095H35.473zm0 21.285h74.495v7.094H35.473z" fill="#646970"/><path d="M35.473 93.118h56.758v7.095H35.473z" fill="#fff"/><path d="M21.284 68.969l-2.66-2.456v4.502l.887.819h1.773zm.205 6.412l2.456-2.66h-4.503l-.818.886v1.774zm-6.413.204l2.66 2.456V73.54l-.886-.819h-1.774zm-.205-6.412l-2.455 2.66h4.502l.819-.886v-1.774z" fill="#50575e"/><g mask="url(#illo-secondary-free-photo-library-f)"><path d="M10.642 42.958h14.19v14.19h-14.19z" fill="#50575e"/></g><path clip-rule="evenodd" d="M19.51 94.005a.887.887 0 111.775 0 .887.887 0 01-1.775 0zm-6.503 7.39h8.277c0 .653-.53 1.183-1.182 1.183h-7.095c-.65 0-1.183-.532-1.183-1.183V94.3c0-.653.53-1.182 1.183-1.182zm10.642-9.46v7.095c0 .654-.53 1.183-1.183 1.183h-7.094c-.654 0-1.183-.53-1.183-1.183v-7.094c0-.654.53-1.183 1.183-1.183h7.094c.654 0 1.183.53 1.183 1.183zm-8.277 0v3.569l1.773-1.878 2.87 3.04.388-.412c.47-.5 1.29-.5 1.76 0l.303.321v-4.64z" fill="#101517" fill-rule="evenodd"/><g mask="url(#illo-secondary-free-photo-library-g)"><path d="M10.642 89.57h14.19v14.19h-14.19z" fill="#fff"/></g></svg>
